X:1
T:The Bridge of Anas
R:strathspey
C:traditional
O:18th century Scottish
B:Bremner's Collections,1757
N:melodic codes 1327b 427bL2 (1327 4272)
Z:Paul Stewart Cranford (P.S.C.), <http://www.cranfordpub.com>
Q:266
L:1/8
M:C|
K:Ddor
A|D/D/D F>D E2 c2|GFED CDEC|D/D/D F>D E2 d2|c>Ac>E D/D/D D:|
A|d>edA d/d/d f2|Te>dce cdec|d>edA d/d/d f2|Te>dce d/d/d d2|
d>edA d/d/d f2|Te>dce cdec|d>ec>d A>cG>A|F>GEd D/D/D D|]
